X:1
T:Title
%%score [ 1 2 3 4 ]
L:1/8
Q:1/4=120
M:3/4
K:D
V:1 treble nm="S."
V:2 treble nm="A."
V:3 treble-8 nm="T."
V:4 bass nm="B."
V:1
!p!"^John, 3.16" F6 |"^Andante ma non lento" F2 E3 E |"^God so loved the world" A6- | A2 z2 z2 | %4
w: God|so loved the|world,||
"^cresc." A6 | A2 ^G3 G | c6- | c2"^John Stainer""^(1840-1901)" B2 A2 |[M:3/4] d4 c2 | c2 B2 A2 | %10
w: God|so loved the|world,|* that He|gave His|on- ly be-|
 G4 F2 | B4!mf! B2 | e2 e2 d2 | c2 d2 B2 | B2 A2 D2 | d4 z2 |!p! D4 G2 | G2 F4 |"^cresc." F4 e2 | %19
w: got- ten|Son, that|who- so be-|liev- eth, be-|\-liev- eth in|Him|should not|per- ish,|should not|
 d2 c2!f! B2 | A2 d2 f2 | f4 e2 | d6 | z2!p! F2 F2 | B2 A2 G2 | F3 G FE | D2"^cresc." F2 B2 | %27
w: per- ish, but|have ev- er-|last- ing|life.|For God|sent not His|Son in- to the|world to con-|
 d>c c2!mf! c2 | e2 e2 d2 | c3 c dB | ^A2 B2 G2 | G>F F4 |!p! F2 F2 F2 | F4 F2 | F2 c2 B2 | %35
w: demn the world, God|sent not His|Son in- to the|world to con-|\-demn the world;|But that the|world through|Him might be|
 (A4 ^G2) | F6 |!pp! F6 | F2 E3 E | A6- | A2 z2 z2 |"^cresc." A6 | A2 ^G3 G | c6- | c2 B2 A2 | %45
w: sav *|ed.|God|so loved the|world,||God|so loved the|world,|* that He|
 d4 c2 | c2 B2 A2 | G4 F2 | B4!mf! B2 | e2 e2 d2 | c2 d2 B2 | B2 A2 D2 | d4 z2 |!p! D4 G2 | G2 F4 | %55
w: gave His|on- ly be-|got- ten|Son, that|who- so be-|liev- eth, be-|\-liev- eth in|Him|should not|per- ish,|
"^cresc." F4 e2 | d2 c2!f! B2 | A2 d2 f2 | f4 e2 | d4 z2 | z6 | z2 d2 g2 | g4 f2 | e4 d2 | %64
w: should not|per- ish, but|have ev- er-|last- ing|life,||ev- er-|last- ing,|ev- er-|
"^dim." (c6 |"^rall." d4) B2 | !fermata!A6 |!pp! A6 | B2 A3 A | d6- | d4 z2 | F6 | F2 E3 E | A6- | %74
w: last|* ing|life.|God|so loved the|world,||God|so loved the|world,|
 A4 z2 |!ppp! F6 |"^rall." F2 E2 F2 | !fermata!D6 |] %78
w: |God|so loved the|world.|
V:2
!p! D6 | D2 C3 C | D6- | D2 z2 z2 |"^cresc." F6 | F2 ^E3 E | (F6 | E2) D2 C2 |[M:3/4] (D2 F2) E2 | %9
w: God|so loved the|world,||God|so loved the|world,|* that He|gave * His|
 E2 D2 C2 | B,4 C2 | D4!mf! ^D2 | E2 E2 F2 | G2 G2 F2 | E2 E2 F2 | G4 z2 |!p! D4 D2 | E2 E4 | %18
w: on- ly be-|got- ten|Son, that|who- so be-|liev- eth, be-|\-liev- eth in|Him|should not|per- ish,|
"^cresc." C4 F2 | F2 E2!f! D2 | F2 A2 A2 | A4 G2 | F6 | z2 D2!p! D2 | F2 E2 D2 | C3 D C^A, | %26
w: should not|per- ish, but|have ev- er-|last- ing|life.|For God|sent not His|Son in- to the|
 B,2"^cresc." D2 F2 | B>^A A2!mf! F2 | E2 E2 F2 | G3 G FF | E2 F2 D2 | E>E E4 |!p! F2 F2 F2 | %33
w: world to con-|demn the world, God|sent not His|Son in- to the|world to con-|\-demn the world;|But that the|
 (D2 C2) B,2 | C2 C2 D2 | (C4 B,2) | A,6 |!pp! D6 | D2 C3 C | D6- | D2 z2 z2 |"^cresc." F6 | %42
w: world * through|Him might be|sav *|ed.|God|so loved the|world,||God|
 F2 ^E3 E | (F6 | E2) D2 C2 | (D2 F2) E2 | E2 D2 C2 | B,4 C2 | D4!mf! ^D2 | E2 E2 F2 | G2 G2 F2 | %51
w: so loved the|world,|* that He|gave * His|on- ly be-|got- ten|Son, that|who- so be-|liev- eth, be-|
 E2 E2 F2 | G4 z2 |!p! D4 D2 | E2 E4 |"^cresc." C4 F2 | F2 E2!f! D2 | F2 A2 A2 | A4 G2 | %59
w: \-liev- eth in|Him|should not|per- ish,|should not|per- ish, but|have ev- er-|last- ing|
 F2"^cresc." F2 B2 | B4 A2 | G2 G2 G2 | =c4 c2 | B4 A2 |"^dim." G6 |"^rall." G6 | !fermata!G6 | %67
w: life, ev- er-|last- ing|life, ev- er-|last- ing,|ev- er-|last-|ing|life.|
!pp! F6 | E2 F3 A | (A6 | G4) z2 | D6 | C2 C3 E | (E6 | D4) z2 |!ppp! C6 |"^rall." C2 C2 C2 | %77
w: God|so loved the|world,||God|so loved the|world,||God|so loved the|
 !fermata!D6 |] %78
w: world.|
V:3
!p! A6 | A2 A3 A | A6- | A2 z2 z2 |"^cresc." c6 | d2 d3 d | c6 | A4 A2 | %8
w: God|so loved the|world,||God|so loved the|world,|that He|
[M:3/4][K:treble-8] A4 ^A2 | ^A2 B2 c2 | d4 c2 | B4!mf! B2 | B2 B2 B2 | ^A2 B2 d2 | =c2 c2 c2 | %15
w: gave His|on- ly be-|got- ten|Son, that|who- so be-|liev- eth, be-|\-liev- eth in|
 B4 z2 |!p! d4 d2 | c2 c4 |"^cresc." (e2 d2) c2 | B2 ^A2!f! B2 | d2 f2 d2 | (d2 B2) c2 | d6 | %23
w: Him|should not|per- ish,|should * not|per- ish, but|have ev- er-|last- * ing|life.|
 z2!p! B2 B2 | d2 c2 B2 | ^A3 B AF | B2"^cresc." B2 d2 | f>F F2!mf! ^A2 | B2 B2 B2 | ^A3 A BB | %30
w: For God|sent not His|Son in- to the|world to con-|demn the world, God|sent not His|Son in- to the|
 c2 B2 d2 | c>c c4 |!p! F2 F2 F2 | F4 F2 | F2 F2 F2 | (F4 ^E2) | F6 |!pp! A6 | A2 A3 A | A6- | %40
w: world to con-|\-demn the world;|But that the|world through|Him might be|sav *|ed.|God|so loved the|world,|
 A2 z2 z2 |"^cresc." c6 | d2 d3 d | c6 | A4 A2 | A4 ^A2 | ^A2 B2 c2 | d4 c2 | B4!mf! B2 | %49
w: |God|so loved the|world,|that He|gave His|on- ly be-|got- ten|Son, that|
 B2 B2 B2 | ^A2 B2 d2 | =c2 c2 c2 | B4 z2 |!p! d4 d2 | c2 c4 |"^cresc." (e2 d2) c2 | B2 ^A2!f! B2 | %57
w: who- so be-|liev- eth, be-|\-liev- eth in|Him|should not|per- ish,|should * not|per- ish, but|
 d2 f2 d2 | (d2 B2) c2 | d2"^cresc." d2 d2 | (d2 e2) f2 | g2 d2 d2 | ^d4 d2 | e4 f2 |"^dim." A6 | %65
w: have ev- er-|last * ing|life, ev- er-|last * ing|life, ev- er-|last- ing,|ev- er-|last-|
"^rall." B6 | !fermata!e6 |!pp! =c6 | =c2 c3 c | B6- | B4 z2 | A6 | G2 G3 G | (G6 | F4) z2 | %75
w: ing|life.|God|so loved the|world,||God|so loved the|world,||
!ppp! A6 |"^rall." A2 G2 A2 | !fermata!F6 |] %78
w: God|so loved the|world.|
V:4
!p! D,6 | G,2 G,3 G, | F,6- | F,2 z2 z2 |"^cresc." F,6 | B,2 B,3 B, | A,6 | !courtesy!=G,4 G,2 | %8
w: God|so loved the|world,||God|so loved the|world,|that He|
[M:3/4] F,4 F,2 | G,2 G,2 A,2 | B,4 A,2 | G,4!mf! A,2 | G,2 G,2 F,2 | E,2 D,2 D,2 | D,2 D,2 D,2 | %15
w: gave His|on- ly be-|got- ten|Son, that|who- so be-|liev- eth, be-|\-liev- eth in|
 D,4 z2 |!p! D,4 B,2 | ^A,2 A,4 |"^cresc." ^A,4 A,2 | B,2 F,2!f! G,2 | %20
w: Him|should not|per- ish,|should not|per- ish, but|
"^This edition  Andrew Sims 2004" A,2 A,2 A,2 | A,4 A,2 | D6 | z6 | z6 | z6 | z6 | z2 z2!mf! F,2 | %28
w: have ev- er-|last- ing|life.|||||God|
 G,2 G,2 F,2 | E,3 E, D,D, | C,2 D,2 B,,2 | ^A,,>A,, A,,4 |!p! F,2 F,2 F,2 | %33
w: sent not His|Son in- to the|world to con-|\-demn the world;|But that the|
 (B,,2 !courtesy!=A,,2) ^G,,2 | A,,2 A,,2 B,,2 | C,6 | F,,6 |!pp! D,6 | G,2 G,3 G, | F,6- | %40
w: world * through|Him might be|sav-|ed.|God|so loved the|world,|
 F,2 z2 z2 |"^cresc." F,6 | B,2 B,3 B, | A,6 | !courtesy!=G,4 G,2 | F,4 F,2 | G,2 G,2 A,2 | %47
w: |God|so loved the|world,|that He|gave His|on- ly be-|
 B,4 A,2 | G,4!mf! A,2 | G,2 G,2 F,2 | E,2 D,2 D,2 | D,2 D,2 D,2 | D,4 z2 |!p! D,4 B,2 | ^A,2 A,4 | %55
w: got- ten|Son, that|who- so be-|liev- eth, be-|\-liev- eth in|Him|should not|per- ish,|
"^cresc." ^A,4 A,2 | B,2 F,2!f! G,2 | A,2 A,2 A,2 | A,4 A,2 | B,2"^cresc." B,2 B,2 | =C4 C2 | %61
w: should not|per- ish, but|have ev- er-|last- ing|life, ev- er-|last- ing|
 B,2 B,2 B,2 | A,4 A,2 | G,4 F,2 |"^dim." E,6 |"^rall." D,6 | !fermata!C,6 |!pp! D,6 | D,2 D,3 D, | %69
w: life, ev- er-|last- ing,|ev- er-|last-|ing|life.|God|so loved the|
 D,6- | D,4 z2 | D,6 | D,2 D,3 D, | D,6- | D,4 z2 |!ppp! A,,6 |"^rall." A,,2 A,,2 A,,2 | %77
w: world,||God|so loved the|world,||God|so loved the|
 !fermata!D,6 |] %78
w: world.|

